home-plus.svg

<svg  viewBox="0 0 24 24" fill="currentColor"><path  d="M17 14H19V17H22V19H19V22H17V19H14V17H17V14M12 3L22 12H18C14.69 12 12 14.69 12 18C12 18.7 12.12 19.37 12.34 20H5V12H2L12 3Z"/></svg>

<svg fill="currentColor" viewBox="0 0 24 24"><path d="M17 14h2v3h3v2h-3v3h-2v-3h-3v-2h3zM12 3l10 9h-4a6.005 6.005 0 0 0-5.66 8H5v-8H2z"/></svg>
